public/images/table.svg

import SpriteSymbol from "svg-baker-runtime/browser-symbol";
import sprite from "svg-sprite-loader/runtime/browser-sprite.build";
var symbol = new SpriteSymbol({
  "id": "icon-table",
  "use": "icon-table-usage",
  "viewBox": "0 0 1024 1024",
  "content": "<symbol class=\"icon\" viewBox=\"0 0 1024 1024\" id=\"icon-table\"><defs><style type=\"text/css\"></style></defs><path d=\"M67.039347 100.410897l889.919259 0 0 200.231347-889.919259 0 0-200.231347Z\" p-id=\"8434\" /><path d=\"M67.039347 345.138668l266.976494 0 0 266.975471-266.976494 0 0-266.975471Z\" p-id=\"8435\" /><path d=\"M67.039347 656.610562l266.976494 0 0 266.976494-266.976494 0 0-266.976494Z\" p-id=\"8436\" /><path d=\"M378.511241 345.138668l266.976494 0 0 266.975471-266.976494 0 0-266.975471Z\" p-id=\"8437\" /><path d=\"M378.511241 656.610562l266.976494 0 0 266.976494-266.976494 0 0-266.976494Z\" p-id=\"8438\" /><path d=\"M689.983135 345.138668l266.976494 0 0 266.975471-266.976494 0 0-266.975471Z\" p-id=\"8439\" /><path d=\"M689.983135 656.610562l266.976494 0 0 266.976494-266.976494 0 0-266.976494Z\" p-id=\"8440\" /><path d=\"M67.039347 100.410897l889.919259 0 0 200.231347-889.919259 0 0-200.231347Z\" p-id=\"8441\" /><path d=\"M67.039347 345.138668l266.976494 0 0 266.975471-266.976494 0 0-266.975471Z\" p-id=\"8442\" /><path d=\"M67.039347 656.610562l266.976494 0 0 266.976494-266.976494 0 0-266.976494Z\" p-id=\"8443\" /><path d=\"M378.511241 345.138668l266.976494 0 0 266.975471-266.976494 0 0-266.975471Z\" p-id=\"8444\" /><path d=\"M378.511241 656.610562l266.976494 0 0 266.976494-266.976494 0 0-266.976494Z\" p-id=\"8445\" /><path d=\"M689.983135 345.138668l266.976494 0 0 266.975471-266.976494 0 0-266.975471Z\" p-id=\"8446\" /><path d=\"M689.983135 656.610562l266.976494 0 0 266.976494-266.976494 0 0-266.976494Z\" p-id=\"8447\" /></symbol>"
});
var result = sprite.add(symbol);
export default symbol

<svg class="icon" viewBox="0 0 1024 1024" xmlns="http://www.w3.org/2000/svg" width="64" height="64"><defs><style/></defs><path d="M67.04 100.41h889.919v200.232H67.039V100.411zm0 244.729h266.976v266.975H67.039V345.14zm0 311.471h266.976v266.977H67.039V656.611zm311.471-311.471h266.977v266.975H378.51V345.14zm0 311.471h266.977v266.977H378.51V656.611zm311.472-311.471H956.96v266.975H689.983V345.14zm0 311.471H956.96v266.977H689.983V656.611z"/><path d="M67.04 100.41h889.919v200.232H67.039V100.411zm0 244.729h266.976v266.975H67.039V345.14zm0 311.471h266.976v266.977H67.039V656.611zm311.471-311.471h266.977v266.975H378.51V345.14zm0 311.471h266.977v266.977H378.51V656.611zm311.472-311.471H956.96v266.975H689.983V345.14zm0 311.471H956.96v266.977H689.983V656.611z"/></svg>
